usr/share/icons/biglinux-icons-material/scalable/mimetypes/text-x-c.svg

<svg width="24" height="24" viewBox="0 0 24 24" fill="none" xmlns="http://www.w3.org/2000/svg">
<rect x="1" y="1" width="22" height="22" rx="6.6" fill="url(#paint0_radial_6_463)"/>
<path d="M17.4 14.2024C17.3564 15.1501 17.1008 15.9886 16.6332 16.7181C16.1656 17.4413 15.5078 18.0024 14.6599 18.4015C13.8182 18.8005 12.8549 19 11.7702 19C9.98078 19 8.57175 18.4171 7.54307 17.2512C6.51436 16.0853 6 14.4394 6 12.3134V11.64C6 10.3058 6.23068 9.13991 6.69204 8.14235C7.15964 7.13858 7.82989 6.36546 8.70279 5.82301C9.57563 5.27433 10.5857 5 11.7329 5C13.3851 5 14.713 5.43644 15.7168 6.30931C16.7205 7.17594 17.291 8.373 17.4282 9.90049H14.1551C14.1301 9.07129 13.9213 8.47587 13.5285 8.11423C13.1357 7.75262 12.5372 7.57182 11.7329 7.57182C10.9161 7.57182 10.3176 7.87733 9.93729 8.48834C9.55698 9.09934 9.35747 10.075 9.33876 11.4154V12.3787C9.33876 13.8313 9.51956 14.8694 9.88117 15.4929C10.249 16.1163 10.8787 16.4281 11.7703 16.4281C12.5247 16.4281 13.1014 16.2504 13.5004 15.895C13.8994 15.5396 14.1114 14.9754 14.1363 14.2023L17.4 14.2024Z" fill="#2F5FDD"/>
<defs>
<radialGradient id="paint0_radial_6_463" cx="0" cy="0" r="1" gradientUnits="userSpaceOnUse" gradientTransform="translate(17.5 1) rotate(116.565) scale(24.5967)">
<stop stop-color="#F4F4F4"/>
<stop offset="1" stop-color="#BBBBBB"/>
</radialGradient>
</defs>
</svg>

<svg xmlns="http://www.w3.org/2000/svg" width="24" height="24" fill="none"><rect width="22" height="22" x="1" y="1" fill="url(#a)" rx="6.6"/><path fill="#2F5FDD" d="M17.4 14.202c-.044.948-.3 1.787-.767 2.516-.467.723-1.125 1.284-1.973 1.683-.842.4-1.805.599-2.89.599-1.79 0-3.198-.583-4.227-1.749C6.514 16.085 6 14.44 6 12.313v-.673c0-1.334.23-2.5.692-3.498.468-1.003 1.138-1.777 2.01-2.319.874-.549 1.884-.823 3.03-.823 1.653 0 2.981.436 3.985 1.31 1.004.866 1.574 2.063 1.711 3.59h-3.273c-.025-.829-.234-1.424-.627-1.786-.392-.361-.99-.542-1.795-.542-.817 0-1.415.305-1.796.916-.38.611-.58 1.587-.598 2.927v.964c0 1.452.18 2.49.542 3.114.368.623.998.935 1.89.935.754 0 1.33-.178 1.73-.533.398-.355.61-.92.635-1.693H17.4Z"/><defs><radialGradient id="a" cx="0" cy="0" r="1" gradientTransform="rotate(116.565 8.441 5.908) scale(24.5967)" gradientUnits="userSpaceOnUse"><stop stop-color="#F4F4F4"/><stop offset="1" stop-color="#BBB"/></radialGradient></defs></svg>
